X:1
T:Title
%%score { 1 | 2 }
L:1/8
M:3/4
K:F
V:1 treble nm="Grand Piano"
V:2 bass 
V:1
 z2 z2[Q:1/4=94] AA | C3 C Fc | c2 E2 EE | E3 B DB |[M:2/4] A4 |[M:1/4] AA |[M:3/4] A3 D [CE][DF] | %7
 [FA]2 [EG]2 [GB]A | G3 G A=B |[M:2/4] [CEc]4 |[M:1/4] [EBc]>[EBc] |[M:3/4] [Af]3 [Ae] [Ad]A | %12
 B2 B2 [EB][GB] | [Be]3 [Bd] [Ac][GB] |[M:2/4] [FA]4 |[M:1/4] [Ac]>[GB] | %16
[M:3/4] [FA]3 [FA] [FB][Fc] | [Fd]2 [DFB]2 [CF][DFG] | [CFA][Fc] [FA]2 [EG]2 |[M:2/4] F4 |] %20
V:2
 z2 z2 [F,C][F,C] | [F,A,]3 [F,A,] [F,A,C][F,A,F] | [G,B,E]2 [G,B,C]2 [C,B,C][C,B,C] | %3
 [C,B,C]3 [C,G,C] [C,B,C][C,G,C] |[M:2/4] [F,C]4 |[M:1/4] [F,C][F,C] | %6
[M:3/4] [D,G,=B,]3 [D,G,B,] [G,,G,][G,B,] | [C,C]2 [C,C]2 [E,C][K:treble][F,CF] | %8
 [G,CE]3 [G,CE] [G,CF][G,DF] |[M:2/4][K:bass] C,4 |[M:1/4] C,>C, | %11
[M:3/4] [F,C]3 [F,C] [F,C][F,CF] | [G,CE]2 [G,CE]2 [C,C][C,C] | [C,C]3 [C,C] [C,C][C,C] | %14
[M:2/4] [F,C]4 |[M:1/4] [F,F]>[F,F] |[M:3/4] [F,C]3 [_E,C] [D,B,][C,A,] | [B,,B,]2 B,,2 A,,B,, | %18
 C,[C,A,] [C,C]2 [C,B,]2 |[M:2/4] [F,A,]4 |] %20

